src/globe.svg

<svg viewBox="0 0 16 16" fill="none" xmlns="http://www.w3.org/2000/svg"><path d="M8.00001 2C6.61181 1.99878 5.26614 2.47896 4.19231 3.35871C3.11847 4.23846 2.38291 5.46335 2.11098 6.82466C1.83904 8.18596 2.04755 9.59944 2.70099 10.8242C3.35442 12.049 4.41234 13.0093 5.69446 13.5415C6.97659 14.0738 8.40359 14.1449 9.73231 13.7429C11.061 13.3409 12.2092 12.4906 12.9813 11.3368C13.7533 10.1831 14.1014 8.79741 13.9662 7.41581C13.8311 6.03421 13.221 4.74222 12.24 3.76C11.1159 2.63446 9.59077 2.0014 8.00001 2ZM13.14 8.45C12.66 8.3 11.77 7.96 11.59 7.21C11.52 6.75937 11.52 6.30063 11.59 5.85L12.45 5.42C12.9024 6.20455 13.1404 7.09435 13.14 8C13.15 8.14984 13.15 8.30017 13.14 8.45ZM4.81001 4C4.97767 4.23748 5.21032 4.42151 5.48001 4.53C6.20657 4.72845 6.9812 4.64635 7.65001 4.3C7.7788 4.81622 7.72217 5.36128 7.49001 5.84L7.40001 6L7.62001 6.76L6.62001 6.32L5.51001 6.74L5.46001 6.9C5.3414 7.20352 5.31707 7.53575 5.39022 7.8533C5.46336 8.17085 5.63057 8.45896 5.87001 8.68C5.2155 8.52117 4.62245 8.17262 4.16525 7.67806C3.70805 7.1835 3.40705 6.56495 3.30001 5.9C3.64578 5.15603 4.16332 4.50482 4.81001 4ZM8.36001 11.78C8.209 11.2303 7.85049 10.7606 7.36001 10.47V9.59L9.36001 9.17C9.45733 9.22054 9.54368 9.28987 9.61405 9.37397C9.68442 9.45808 9.73743 9.55529 9.77001 9.66C9.79283 9.85151 9.77525 10.0457 9.71841 10.23C9.66157 10.4143 9.56673 10.5846 9.44001 10.73L8.44001 13.14H8.13001C8.37816 12.7219 8.46024 12.2258 8.36001 11.75V11.78ZM2.86001 8C2.86137 7.76583 2.87807 7.53199 2.91001 7.3C3.2393 7.98615 3.75351 8.56681 4.3948 8.97667C5.03609 9.38653 5.77901 9.60933 6.54001 9.62V11L6.78001 11.12C6.9554 11.207 7.11191 11.3278 7.2406 11.4754C7.36929 11.6229 7.46764 11.7944 7.53001 11.98C7.54922 12.1868 7.5244 12.3953 7.45718 12.5918C7.38995 12.7883 7.28186 12.9683 7.14001 13.12C5.93408 12.9154 4.84063 12.2875 4.05614 11.349C3.27165 10.4106 2.84754 9.2231 2.86001 8ZM9.43001 12.94L10.17 11.14C10.3635 10.893 10.4998 10.6061 10.569 10.3C10.6381 9.99387 10.6385 9.67625 10.57 9.37C10.4879 9.12774 10.3567 8.90502 10.1847 8.71575C10.0126 8.52648 9.80337 8.37474 9.57001 8.27H9.45001L7.06001 8.78C6.6018 8.44602 6.25362 7.98294 6.06001 7.45L6.52001 7.28L7.99001 7.89L8.58001 7L8.32001 6.08C8.50223 5.67355 8.58972 5.23101 8.57586 4.78579C8.562 4.34058 8.44716 3.90433 8.24001 3.51L8.00001 3.09L7.62001 3.31C7.08015 3.66429 6.42846 3.80674 5.79001 3.71C5.68129 3.66805 5.58496 3.59924 5.51001 3.51C6.56168 2.91753 7.78832 2.71409 8.97495 2.93532C10.1616 3.15656 11.2325 3.78836 12 4.72L10.86 5.28V5.49C10.7499 6.13198 10.7499 6.78802 10.86 7.43C11.0357 7.89244 11.323 8.30425 11.6964 8.62877C12.0698 8.95329 12.5176 9.18044 13 9.29C12.7736 10.1562 12.3252 10.9485 11.6992 11.5885C11.0731 12.2286 10.291 12.6944 9.43001 12.94Z" fill="#111111"/></svg>

<svg xmlns="http://www.w3.org/2000/svg" viewBox="0 0 16 16" fill="#000000"><title>Globe</title><path id="globe_svg__globe" d="M8,2a6,6,0,1,0,4.24,1.76A6,6,0,0,0,8,2Zm5.14,6.45c-.48-.15-1.37-.49-1.55-1.24a4.43,4.43,0,0,1,0-1.36l.86-.43A5.16,5.16,0,0,1,13.14,8,3.38,3.38,0,0,1,13.14,8.45ZM4.81,4a1.51,1.51,0,0,0,.67.53,3,3,0,0,0,2.17-.23,2.27,2.27,0,0,1-.16,1.54L7.4,6l.22.76-1-.44-1.11.42-.05.16a1.62,1.62,0,0,0,.41,1.78A3.42,3.42,0,0,1,3.3,5.9,5.18,5.18,0,0,1,4.81,4Zm3.55,7.78a2.2,2.2,0,0,0-1-1.31V9.59l2-.42a.83.83,0,0,1,.41.49,1.38,1.38,0,0,1-.33,1.07l-1,2.41H8.13A1.94,1.94,0,0,0,8.36,11.75ZM2.86,8a5.36,5.36,0,0,1,.05-.7A4.09,4.09,0,0,0,6.54,9.62V11l.24.12a1.49,1.49,0,0,1,.75.86,1.47,1.47,0,0,1-.39,1.14A5.14,5.14,0,0,1,2.86,8Zm6.57,4.94.74-1.8a2.12,2.12,0,0,0,.4-1.77,1.86,1.86,0,0,0-1-1.1l-.12,0-2.39.51a2.85,2.85,0,0,1-1-1.33l.46-.17,1.47.61L8.58,7l-.26-.92a2.94,2.94,0,0,0-.08-2.57L8,3.09l-.38.22a2.62,2.62,0,0,1-1.83.4.69.69,0,0,1-.28-.2A5.14,5.14,0,0,1,12,4.72l-1.14.56v.21a5.74,5.74,0,0,0,0,1.94A3,3,0,0,0,13,9.29,5.15,5.15,0,0,1,9.43,12.94Z"/></svg>
